X: 38
T: The Mulberry Bush
N: (Singing Game. Directions p. 8.)
%R: air, jig
B: "The Everyday Song Book", 1927
F: http://www.library.pitt.edu/happybirthday/pdf/The_Everyday_Song_Book.pdf
Z: 2017 John Chambers <jc:trillian.mit.edu>
M: 6/8
L: 1/8
K: A
% - - - - - - - - - - - - - - -
[| AAA A2 c | e2 c/ c/ A2 c | B2 B/ B/ B2 A | G2 F/ F/ E2z |
w: 1.~Here we go round the mul-ber-ry bush, the mul-ber-ry bush, the mul-ber-ry bush;
%
   AAA A2 c | e2 c/ c/ A2 c | B2 B (EF) G | A3 A2z |]
w: Here we go round the mul-ber-ry bush, So ear-ly in* the morn-ing.
%
W: 2. This is the way we wash our clothes, etc.
W:     This is the way we wash our clothes, so early Monday morning.
W: 3. This is the way we iron our clothes, etc., so early Tuesday morning.
W: 4. This is the way we scrub the floor, etc., so early Wednesday morning.
W: 5. This is the way we mend our clothes, etc., so early Thursday morning.
W: 6. This is the way we sweep the floor, etc., so early Friday morning.
W: 7. This is the way we bake the bread, etc., so early Saturday morning.
W: 8. This is the way we go to church, etc., so early Sunday morning.
% - - - - - - - - - - - - - - -

%%sep 1 1 500
%%sep 1 1 500

